Papirus/48x48/apps/org.kde.kalendar.svg

<svg xmlns="http://www.w3.org/2000/svg" width="48" height="48" version="1.1">
 <rect style="opacity:0.2" width="40" height="40" x="4" y="5" rx="3"/>
 <path style="fill:#02c9fd" d="M 9.0931801,8.532886 23.689311,4 H 41 c 1.662,0 3,1.338 3,3 v 34 c 0,1.662 -1.338,3 -3,3 H 7 C 5.338,44 4,42.662 4,41 V 29.488855 L 7.0759528,10.588861 C 7.3429288,8.9484438 7.5059575,9.0258042 9.0931801,8.532886 Z"/>
 <path style="opacity:0.2" d="m 23,18 c -0.554,0 -1,0.446 -1,1 v 6 c 0,0.554 0.446,1 1,1 h 6 c 0.554,0 1,-0.446 1,-1 v -6 c 0,-0.554 -0.446,-1 -1,-1 z m 10,0 c -0.554,0 -1,0.446 -1,1 v 6 c 0,0.554 0.446,1 1,1 h 6 c 0.554,0 1,-0.446 1,-1 v -6 c 0,-0.554 -0.446,-1 -1,-1 z M 23,28 c -0.554,0 -1,0.446 -1,1 v 6 c 0,0.554 0.446,1 1,1 h 6 c 0.554,0 1,-0.446 1,-1 v -6 c 0,-0.554 -0.446,-1 -1,-1 z m 10,0 c -0.554,0 -1,0.446 -1,1 v 6 c 0,0.554 0.446,1 1,1 h 6 c 0.554,0 1,-0.446 1,-1 v -6 c 0,-0.554 -0.446,-1 -1,-1 z"/>
 <path style="fill:#115267" d="M 7,4 C 5.3431458,4 4,5.3431458 4,7 v 15 8 L 6.7441406,26.433594 17.5,44 h 6 L 10.068359,22.111328 24,4 Z"/>
 <path style="fill:#ffffff" d="m 23,27 c -0.554,0 -1,0.446 -1,1 v 6 c 0,0.554 0.446,1 1,1 h 6 c 0.554,0 1,-0.446 1,-1 v -6 c 0,-0.554 -0.446,-1 -1,-1 z"/>
 <rect fill="#bbe9ff" width="6" height="6" x="23" y="28" ry=".25"/>
 <path fill="#00789d" d="m23 12c-.554 0-1 .446-1 1v1c0 .554.446 1 1 1h6c.554 0 1-.446 1-1v-1c0-.554-.446-1-1-1zm10 0c-.554 0-1 .446-1 1v1c0 .554.446 1 1 1h6c.554 0 1-.446 1-1v-1c0-.554-.446-1-1-1z"/>
 <path stroke="#0097d7" style="fill:none" d="m23.884381 31.064209 1.109152 1.333275c.188898.227072.495198.227072.684096 0l2.560352-3.077717"/>
 <path style="opacity:0.2;fill:#ffffff" d="M 24,4 23.230469,5 H 41 c 1.662,0 3,1.338 3,3 V 7 C 44,5.338 42.662,4 41,4 Z"/>
 <path style="opacity:0.1;fill:#ffffff" d="M 7,4 C 5.3431458,4 4,5.3431458 4,7 V 8 C 4,6.3431458 5.3431458,5 7,5 H 23.230469 L 24,4 Z"/>
 <path style="fill:#ffffff" d="m 33,27 c -0.554,0 -1,0.446 -1,1 v 6 c 0,0.554 0.446,1 1,1 h 6 c 0.554,0 1,-0.446 1,-1 v -6 c 0,-0.554 -0.446,-1 -1,-1 z"/>
 <path style="fill:#ffffff" d="m 33,17 c -0.554,0 -1,0.446 -1,1 v 6 c 0,0.554 0.446,1 1,1 h 6 c 0.554,0 1,-0.446 1,-1 v -6 c 0,-0.554 -0.446,-1 -1,-1 z"/>
 <path style="fill:#ffffff" d="m 23,17 c -0.554,0 -1,0.446 -1,1 v 6 c 0,0.554 0.446,1 1,1 h 6 c 0.554,0 1,-0.446 1,-1 v -6 c 0,-0.554 -0.446,-1 -1,-1 z"/>
</svg>

<svg xmlns="http://www.w3.org/2000/svg" width="48" height="48" version="1.1">
 <rect style="opacity:0.2" width="40" height="40" x="4" y="5" rx="3"/>
 <path style="fill:#02c9fd" d="M 9.0932,8.5329 23.689,4 H 41 C 42.662,4 44,5.338 44,7 V 41 C 44,42.662 42.662,44 41,44 H 7 C 5.338,44 4,42.662 4,41 V 29.489 L 7.076,10.589 C 7.3429,8.9484 7.506,9.0258 9.0932,8.5329 Z"/>
 <path style="opacity:0.2" d="M 23,18 C 22.446,18 22,18.446 22,19 V 25 C 22,25.554 22.446,26 23,26 H 29 C 29.554,26 30,25.554 30,25 V 19 C 30,18.446 29.554,18 29,18 Z M 33,18 C 32.446,18 32,18.446 32,19 V 25 C 32,25.554 32.446,26 33,26 H 39 C 39.554,26 40,25.554 40,25 V 19 C 40,18.446 39.554,18 39,18 Z M 23,28 C 22.446,28 22,28.446 22,29 V 35 C 22,35.554 22.446,36 23,36 H 29 C 29.554,36 30,35.554 30,35 V 29 C 30,28.446 29.554,28 29,28 Z M 33,28 C 32.446,28 32,28.446 32,29 V 35 C 32,35.554 32.446,36 33,36 H 39 C 39.554,36 40,35.554 40,35 V 29 C 40,28.446 39.554,28 39,28 Z"/>
 <path style="fill:#115267" d="M 7,4 C 5.3431,4 4,5.3431 4,7 V 22 30 L 6.7441,26.434 17.5,44 H 23.5 L 10.068,22.111 24,4 Z"/>
 <path style="fill:#ffffff" d="M 23,27 C 22.446,27 22,27.446 22,28 V 34 C 22,34.554 22.446,35 23,35 H 29 C 29.554,35 30,34.554 30,34 V 28 C 30,27.446 29.554,27 29,27 Z"/>
 <rect fill="#bbe9ff" width="6" height="6" x="23" y="28" ry=".25"/>
 <path fill="#00789d" d="M 23,12 C 22.446,12 22,12.446 22,13 V 14 C 22,14.554 22.446,15 23,15 H 29 C 29.554,15 30,14.554 30,14 V 13 C 30,12.446 29.554,12 29,12 Z M 33,12 C 32.446,12 32,12.446 32,13 V 14 C 32,14.554 32.446,15 33,15 H 39 C 39.554,15 40,14.554 40,14 V 13 C 40,12.446 39.554,12 39,12 Z"/>
 <path stroke="#0097d7" style="fill:none" d="M 23.884,31.064 24.994,32.397 C 25.182,32.625 25.489,32.625 25.678,32.397 L 28.238,29.32"/>
 <path style="opacity:0.2;fill:#ffffff" d="M 24,4 23.23,5 H 41 C 42.662,5 44,6.338 44,8 V 7 C 44,5.338 42.662,4 41,4 Z"/>
 <path style="opacity:0.1;fill:#ffffff" d="M 7,4 C 5.3431,4 4,5.3431 4,7 V 8 C 4,6.3431 5.3431,5 7,5 H 23.23 L 24,4 Z"/>
 <path style="fill:#ffffff" d="M 33,27 C 32.446,27 32,27.446 32,28 V 34 C 32,34.554 32.446,35 33,35 H 39 C 39.554,35 40,34.554 40,34 V 28 C 40,27.446 39.554,27 39,27 Z"/>
 <path style="fill:#ffffff" d="M 33,17 C 32.446,17 32,17.446 32,18 V 24 C 32,24.554 32.446,25 33,25 H 39 C 39.554,25 40,24.554 40,24 V 18 C 40,17.446 39.554,17 39,17 Z"/>
 <path style="fill:#ffffff" d="M 23,17 C 22.446,17 22,17.446 22,18 V 24 C 22,24.554 22.446,25 23,25 H 29 C 29.554,25 30,24.554 30,24 V 18 C 30,17.446 29.554,17 29,17 Z"/>
</svg>
